Numix-Light/24x24/status/gpm-phone-000.svg

<?xml version="1.0" encoding="UTF-8" standalone="no"?>
<svg
   xmlns:dc="http://purl.org/dc/elements/1.1/"
   xmlns:cc="http://creativecommons.org/ns#"
   xmlns:rdf="http://www.w3.org/1999/02/22-rdf-syntax-ns#"
   xmlns:svg="http://www.w3.org/2000/svg"
   xmlns="http://www.w3.org/2000/svg"
   xmlns:sodipodi="http://sodipodi.sourceforge.net/DTD/sodipodi-0.dtd"
   xmlns:inkscape="http://www.inkscape.org/namespaces/inkscape"
   width="24"
   height="24"
   viewBox="0 0 24 24"
   id="svg3011"
   version="1.1"
   inkscape:version="0.48.5 r10040"
   sodipodi:docname="gpm-phone-000.svg">
  <metadata
     id="metadata3035">
    <rdf:RDF>
      <cc:Work
         rdf:about="">
        <dc:format>image/svg+xml</dc:format>
        <dc:type
           rdf:resource="http://purl.org/dc/dcmitype/StillImage" />
      </cc:Work>
    </rdf:RDF>
  </metadata>
  <defs
     id="defs3033" />
  <sodipodi:namedview
     pagecolor="#ffffff"
     bordercolor="#666666"
     borderopacity="1"
     objecttolerance="10"
     gridtolerance="10"
     guidetolerance="10"
     inkscape:pageopacity="0"
     inkscape:pageshadow="2"
     inkscape:window-width="1280"
     inkscape:window-height="998"
     id="namedview3031"
     showgrid="false"
     inkscape:zoom="27.812867"
     inkscape:cx="5.0766417"
     inkscape:cy="12.642222"
     inkscape:window-x="0"
     inkscape:window-y="0"
     inkscape:window-maximized="1"
     inkscape:current-layer="svg3011" />
  <path
     inkscape:connector-curvature="0"
     id="path3017"
     d="m 3.273438,4.363281 c -0.605469,0 -1.089844,0.488281 -1.089844,1.089844 l 0,14.183594 c 0,0.605469 0.484375,1.089843 1.089844,1.089843 l 6.542968,0 c 0.605469,0 1.09375,-0.484374 1.09375,-1.089843 l 0,-14.183594 c 0,-0.601563 -0.488281,-1.089844 -1.09375,-1.089844 z m 0.542968,1.089844 5.457032,0 c 0.300781,0 0.542968,0.246094 0.542968,0.546875 l 0,7.636719 c 0,0.300781 -0.242187,0.546875 -0.542968,0.546875 l -5.457032,0 c -0.300781,0 -0.542968,-0.246094 -0.542968,-0.546875 L 3.273438,6 c 0,-0.300781 0.242187,-0.546875 0.542968,-0.546875 z m 0,10.910156 c 0.304688,0 0.546875,0.242188 0.546875,0.546875 0,0.300782 -0.242187,0.542969 -0.546875,0.542969 -0.300781,0 -0.542968,-0.242187 -0.542968,-0.542969 0,-0.304687 0.242187,-0.546875 0.542968,-0.546875 z m 2.183594,0 c 0.300781,0 0.546875,0.242188 0.546875,0.546875 0,-0.304687 0.242187,-0.546875 0.542969,-0.546875 0.304687,0 0.546875,0.242188 0.546875,0.546875 0,0.300782 -0.242188,0.542969 -0.546875,0.542969 -0.300782,0 -0.542969,-0.242187 -0.542969,-0.542969 0,0.300782 -0.246094,0.542969 -0.546875,0.542969 -0.300781,0 -0.546875,-0.242187 -0.546875,-0.542969 0,-0.304687 0.246094,-0.546875 0.546875,-0.546875 z m 3.273438,0 c 0.300781,0 0.542968,0.242188 0.542968,0.546875 0,0.300782 -0.242187,0.542969 -0.542968,0.542969 -0.304688,0 -0.546876,-0.242187 -0.546876,-0.542969 0,-0.304687 0.242188,-0.546875 0.546876,-0.546875 z m -5.457032,2.183594 c 0.304688,0 0.546875,0.242187 0.546875,0.542969 0,0.304687 -0.242187,0.546875 -0.546875,0.546875 -0.300781,0 -0.542968,-0.242188 -0.542968,-0.546875 0,-0.300782 0.242187,-0.542969 0.542968,-0.542969 z m 2.183594,0 c 0.300781,0 0.546875,0.242187 0.546875,0.542969 0,-0.300782 0.242187,-0.542969 0.542969,-0.542969 0.304687,0 0.546875,0.242187 0.546875,0.542969 0,0.304687 -0.242188,0.546875 -0.546875,0.546875 -0.300782,0 -0.542969,-0.242188 -0.542969,-0.546875 0,0.304687 -0.246094,0.546875 -0.546875,0.546875 -0.300781,0 -0.546875,-0.242188 -0.546875,-0.546875 0,-0.300782 0.246094,-0.542969 0.546875,-0.542969 z m 3.273438,0 c 0.300781,0 0.542968,0.242187 0.542968,0.542969 0,0.304687 -0.242187,0.546875 -0.542968,0.546875 -0.304688,0 -0.546876,-0.242188 -0.546876,-0.546875 0,-0.300782 0.242188,-0.542969 0.546876,-0.542969 z"
     style="fill:#353535;fill-rule:evenodd;fill-opacity:1" />
  <path
     style="fill:none;stroke:#ffffff;stroke-width:0.54545498;stroke-linecap:round;stroke-opacity:0.30199998"
     d="m 3.5468779,13.636731 0,-7.636726 c 0,-0.1523434 0.1210942,-0.2734377 0.2695311,-0.2734377 l 5.4570362,0 c 0.1484379,0 0.2734377,0.1210943 0.2734377,0.2734377 l 0,7.636726 c 0,0.152343 -0.1249998,0.273437 -0.2734377,0.273437 l -5.4570362,0 c -0.1484369,0 -0.2695311,-0.121094 -0.2695311,-0.273437 z"
     id="path3023"
     inkscape:connector-curvature="0" />
  <path
     style="font-size:medium;font-style:normal;font-variant:normal;font-weight:normal;font-stretch:normal;text-indent:0;text-align:start;text-decoration:none;line-height:normal;letter-spacing:normal;word-spacing:normal;text-transform:none;direction:ltr;block-progression:tb;writing-mode:lr-tb;text-anchor:start;baseline-shift:baseline;color:#000000;fill:#ef555c;fill-opacity:1;stroke:none;stroke-width:1.09090996000000007;marker:none;visibility:visible;display:inline;overflow:visible;enable-background:accumulate;font-family:Sans;-inkscape-font-specification:Sans"
     d="M 17.1875,2.1875 C 16.289479,2.079266 15.346688,2.6628065 15.28125,3.65625 l 0,0.03125 0,0.03125 c 0,0.2195296 0.0011,0.4348491 0,0.65625 l -0.5625,0 c -0.896378,0 -1.625,0.7286217 -1.625,1.625 l 0,13.09375 c 0,0.896378 0.726275,1.625 1.625,1.625 l 5.46875,0 c 0.896723,0 1.625,-0.726276 1.625,-1.625 L 21.8125,6 c 0,-0.8987242 -0.730639,-1.625 -1.625,-1.625 l -0.5625,0 c 0.0051,-0.1548124 0.03706,-0.2777341 0.03125,-0.46875 -0.01044,-0.3434523 -0.08379,-0.7624737 -0.375,-1.125 C 18.965852,2.3765901 18.502522,2.2250061 18.125,2.1875 c -0.364938,-0.036256 -0.678853,0.00756 -0.90625,0 -0.0078,-2.606e-4 -0.02363,3.602e-4 -0.03125,0 z m -0.125,1.09375 0.03125,0 0.03125,0 c 0.349687,0.016539 0.652912,-0.022064 0.875,0 0.222088,0.022064 0.307584,0.06091 0.40625,0.1875 0.0916,0.1140367 0.149115,0.2340767 0.15625,0.46875 0.0034,0.113156 0.0051,0.2943205 0,0.4375 l -2.1875,0 c 0.0011,-0.2097656 -1.31e-4,-0.4115493 0,-0.625 0.01974,-0.2996776 0.360277,-0.5143127 0.6875,-0.46875 z m -2.34375,2.1875 5.46875,0 c 0.308765,0 0.53125,0.2190358 0.53125,0.53125 l 0,13.09375 c 0,0.312214 -0.224847,0.53125 -0.53125,0.53125 l -5.46875,0 c -0.312213,0 -0.53125,-0.21669 -0.53125,-0.53125 L 14.1875,6 c 0,-0.3145601 0.21669,-0.53125 0.53125,-0.53125 z"
     id="path3029"
     inkscape:connector-curvature="0" />
</svg>

<svg width="24" xmlns="http://www.w3.org/2000/svg" height="24" viewBox="0 0 24 24" xmlns:xlink="http://www.w3.org/1999/xlink">
<g style="fill-rule:evenodd">
<path style="fill:#000;fill-opacity:.302" d="M 3.273438 5.453125 C 2.667969 5.453125 2.183594 5.941406 2.183594 6.546875 L 2.183594 20.726562 C 2.183594 21.332031 2.667969 21.816406 3.273438 21.816406 L 9.816406 21.816406 C 10.421875 21.816406 10.910156 21.332031 10.910156 20.726562 L 10.910156 6.546875 C 10.910156 5.941406 10.421875 5.453125 9.816406 5.453125 Z M 3.816406 6.546875 L 9.273438 6.546875 C 9.574219 6.546875 9.816406 6.789062 9.816406 7.089844 L 9.816406 14.726562 C 9.816406 15.03125 9.574219 15.273438 9.273438 15.273438 L 3.816406 15.273438 C 3.515625 15.273438 3.273438 15.03125 3.273438 14.726562 L 3.273438 7.089844 C 3.273438 6.789062 3.515625 6.546875 3.816406 6.546875 Z M 3.816406 17.453125 C 4.121094 17.453125 4.363281 17.699219 4.363281 18 C 4.363281 18.300781 4.121094 18.546875 3.816406 18.546875 C 3.515625 18.546875 3.273438 18.300781 3.273438 18 C 3.273438 17.699219 3.515625 17.453125 3.816406 17.453125 Z M 6 17.453125 C 6.300781 17.453125 6.546875 17.699219 6.546875 18 C 6.546875 17.699219 6.789062 17.453125 7.089844 17.453125 C 7.394531 17.453125 7.636719 17.699219 7.636719 18 C 7.636719 18.300781 7.394531 18.546875 7.089844 18.546875 C 6.789062 18.546875 6.546875 18.300781 6.546875 18 C 6.546875 18.300781 6.300781 18.546875 6 18.546875 C 5.699219 18.546875 5.453125 18.300781 5.453125 18 C 5.453125 17.699219 5.699219 17.453125 6 17.453125 Z M 9.273438 17.453125 C 9.574219 17.453125 9.816406 17.699219 9.816406 18 C 9.816406 18.300781 9.574219 18.546875 9.273438 18.546875 C 8.96875 18.546875 8.726562 18.300781 8.726562 18 C 8.726562 17.699219 8.96875 17.453125 9.273438 17.453125 Z M 3.816406 19.636719 C 4.121094 19.636719 4.363281 19.878906 4.363281 20.183594 C 4.363281 20.484375 4.121094 20.726562 3.816406 20.726562 C 3.515625 20.726562 3.273438 20.484375 3.273438 20.183594 C 3.273438 19.878906 3.515625 19.636719 3.816406 19.636719 Z M 6 19.636719 C 6.300781 19.636719 6.546875 19.878906 6.546875 20.183594 C 6.546875 19.878906 6.789062 19.636719 7.089844 19.636719 C 7.394531 19.636719 7.636719 19.878906 7.636719 20.183594 C 7.636719 20.484375 7.394531 20.726562 7.089844 20.726562 C 6.789062 20.726562 6.546875 20.484375 6.546875 20.183594 C 6.546875 20.484375 6.300781 20.726562 6 20.726562 C 5.699219 20.726562 5.453125 20.484375 5.453125 20.183594 C 5.453125 19.878906 5.699219 19.636719 6 19.636719 Z M 9.273438 19.636719 C 9.574219 19.636719 9.816406 19.878906 9.816406 20.183594 C 9.816406 20.484375 9.574219 20.726562 9.273438 20.726562 C 8.96875 20.726562 8.726562 20.484375 8.726562 20.183594 C 8.726562 19.878906 8.96875 19.636719 9.273438 19.636719 Z "/>
<path style="fill:#353535" d="M 3.273438 4.363281 C 2.667969 4.363281 2.183594 4.851562 2.183594 5.453125 L 2.183594 19.636719 C 2.183594 20.242188 2.667969 20.726562 3.273438 20.726562 L 9.816406 20.726562 C 10.421875 20.726562 10.910156 20.242188 10.910156 19.636719 L 10.910156 5.453125 C 10.910156 4.851562 10.421875 4.363281 9.816406 4.363281 Z M 3.816406 5.453125 L 9.273438 5.453125 C 9.574219 5.453125 9.816406 5.699219 9.816406 6 L 9.816406 13.636719 C 9.816406 13.9375 9.574219 14.183594 9.273438 14.183594 L 3.816406 14.183594 C 3.515625 14.183594 3.273438 13.9375 3.273438 13.636719 L 3.273438 6 C 3.273438 5.699219 3.515625 5.453125 3.816406 5.453125 Z M 3.816406 16.363281 C 4.121094 16.363281 4.363281 16.605469 4.363281 16.910156 C 4.363281 17.210938 4.121094 17.453125 3.816406 17.453125 C 3.515625 17.453125 3.273438 17.210938 3.273438 16.910156 C 3.273438 16.605469 3.515625 16.363281 3.816406 16.363281 Z M 6 16.363281 C 6.300781 16.363281 6.546875 16.605469 6.546875 16.910156 C 6.546875 16.605469 6.789062 16.363281 7.089844 16.363281 C 7.394531 16.363281 7.636719 16.605469 7.636719 16.910156 C 7.636719 17.210938 7.394531 17.453125 7.089844 17.453125 C 6.789062 17.453125 6.546875 17.210938 6.546875 16.910156 C 6.546875 17.210938 6.300781 17.453125 6 17.453125 C 5.699219 17.453125 5.453125 17.210938 5.453125 16.910156 C 5.453125 16.605469 5.699219 16.363281 6 16.363281 Z M 9.273438 16.363281 C 9.574219 16.363281 9.816406 16.605469 9.816406 16.910156 C 9.816406 17.210938 9.574219 17.453125 9.273438 17.453125 C 8.96875 17.453125 8.726562 17.210938 8.726562 16.910156 C 8.726562 16.605469 8.96875 16.363281 9.273438 16.363281 Z M 3.816406 18.546875 C 4.121094 18.546875 4.363281 18.789062 4.363281 19.089844 C 4.363281 19.394531 4.121094 19.636719 3.816406 19.636719 C 3.515625 19.636719 3.273438 19.394531 3.273438 19.089844 C 3.273438 18.789062 3.515625 18.546875 3.816406 18.546875 Z M 6 18.546875 C 6.300781 18.546875 6.546875 18.789062 6.546875 19.089844 C 6.546875 18.789062 6.789062 18.546875 7.089844 18.546875 C 7.394531 18.546875 7.636719 18.789062 7.636719 19.089844 C 7.636719 19.394531 7.394531 19.636719 7.089844 19.636719 C 6.789062 19.636719 6.546875 19.394531 6.546875 19.089844 C 6.546875 19.394531 6.300781 19.636719 6 19.636719 C 5.699219 19.636719 5.453125 19.394531 5.453125 19.089844 C 5.453125 18.789062 5.699219 18.546875 6 18.546875 Z M 9.273438 18.546875 C 9.574219 18.546875 9.816406 18.789062 9.816406 19.089844 C 9.816406 19.394531 9.574219 19.636719 9.273438 19.636719 C 8.96875 19.636719 8.726562 19.394531 8.726562 19.089844 C 8.726562 18.789062 8.96875 18.546875 9.273438 18.546875 Z "/>
</g>
<g style="stroke-linecap:round;fill:none">
<g style="stroke-opacity:.302">
<path style="stroke:#fff;stroke-width:.5" d="M 3.251302 12.500326 L 3.251302 5.5 C 3.251302 5.360352 3.362305 5.249349 3.498372 5.249349 L 8.500651 5.249349 C 8.636719 5.249349 8.751302 5.360352 8.751302 5.5 L 8.751302 12.500326 C 8.751302 12.639974 8.636719 12.750977 8.500651 12.750977 L 3.498372 12.750977 C 3.362305 12.750977 3.251302 12.639974 3.251302 12.500326 Z " transform="scale(1.09091)"/>
<path style="stroke:#000" d="M 12.500326 18.501628 L 12.500326 6.499023 C 12.500326 5.947591 12.944336 5.5 13.499349 5.5 L 18.501628 5.5 C 19.05306 5.5 19.500651 5.947591 19.500651 6.499023 L 19.500651 18.501628 C 19.500651 19.05306 19.05306 19.500651 18.501628 19.500651 L 13.499349 19.500651 C 12.944336 19.500651 12.500326 19.05306 12.500326 18.501628 Z M 14.501953 5.381836 C 14.501953 5.052409 14.505534 4.726562 14.505534 4.397135 C 14.544922 3.799154 15.153646 3.419596 15.719401 3.501953 C 16.249349 3.523438 16.89388 3.376628 17.273438 3.863607 C 17.624349 4.300456 17.463216 4.884115 17.499023 5.39974 " transform="scale(1.09091)"/>
<path style="stroke:#de372c;stroke-width:.5" d="M -17.499023 13.248698 L -5.5 13.248698 C -5.360352 13.248698 -5.249349 13.363281 -5.249349 13.499349 L -5.249349 18.501628 C -5.249349 18.637695 -5.360352 18.748698 -5.5 18.748698 L -17.499023 18.748698 C -17.638672 18.748698 -17.749674 18.637695 -17.749674 18.501628 L -17.749674 13.499349 C -17.749674 13.363281 -17.638672 13.248698 -17.499023 13.248698 Z " transform="matrix(0 -1.09091 1.09091 0 0 0)"/>
</g>
<path style="stroke:#de372c" d="M 12.500326 17.499023 L 12.500326 5.5 C 12.500326 4.944987 12.944336 4.500977 13.499349 4.500977 L 18.501628 4.500977 C 19.05306 4.500977 19.500651 4.944987 19.500651 5.5 L 19.500651 17.499023 C 19.500651 18.054036 19.05306 18.501628 18.501628 18.501628 L 13.499349 18.501628 C 12.944336 18.501628 12.500326 18.054036 12.500326 17.499023 Z M 14.501953 4.382812 C 14.501953 4.053385 14.505534 3.727539 14.505534 3.398112 C 14.544922 2.80013 15.153646 2.420573 15.719401 2.499349 C 16.249349 2.524414 16.89388 2.377604 17.273438 2.864583 C 17.624349 3.301432 17.463216 3.885091 17.499023 4.400716 " transform="scale(1.09091)"/>
</g>
</svg>
